X: 4
T: The Minstrel's Fancy
R: hornpipe
M: 4/4
L: 1/8
K: Dmaj
|: dB | AFAd BGdB | AFAd f2 fe | dfgf edBc | dBAG FEDF |AFAd BGdB | AFAd f2 fe | dfgf edBc | dgfe d2 :||: ef | g2 ge cabc | dcde f2 ef | g2 ge cabc | dBAG FEDF |AFAd BGdB | AFAd f2 fe | dfgf edBc | dgfe d2 :|


Tune 2761	Setting 15987

